assets/icons/Lock.svg

<svg fill="none" height="18" viewBox="0 0 15 18" width="15" xmlns="http://www.w3.org/2000/svg"><path clip-rule="evenodd" d="m9.24419 11.5472c0 .9373-.7814 1.6981-1.74419 1.6981s-1.74419-.7608-1.74419-1.6981c0-.9374.7814-1.69814 1.74419-1.69814s1.74419.76074 1.74419 1.69814zm4.70931 2.5471c0 1.592-1.33 2.8868-2.9651 2.8868h-6.97677c-1.63518 0-2.96512-1.2948-2.96512-2.8868v-5.0943c0-1.59198 1.32994-2.88679 2.96512-2.88679h6.97677c1.6351 0 2.9651 1.29481 2.9651 2.88679zm-9.41862-10.18864c0-1.59198 1.32995-2.88679 2.96512-2.88679.78488 0 1.53139.30056 2.09477.84141.56163.55359.87033 1.28038.87033 2.04538v1.18868h-5.93022zm6.97672 1.22179v-1.22179c0-1.03415-.416-2.01481-1.1764-2.76538-.7666-.73528-1.77299-1.14028-2.8352-1.14028-2.2125 0-4.01163 1.7516-4.01163 3.90566v1.22179c-1.9657.25047-3.48837 1.8917-3.48837 3.87255v5.0943c0 2.1541 1.79913 3.9057 4.01163 3.9057h6.97677c2.2116 0 4.0116-1.7516 4.0116-3.9057v-5.0943c0-1.98085-1.5227-3.62208-3.4884-3.87255z" fill="#757575" fill-rule="evenodd"/></svg>

<svg width="15" height="18" viewBox="0 0 15 18" fill="none" xmlns="http://www.w3.org/2000/svg">
<path fill-rule="evenodd" clip-rule="evenodd" d="M9.24419 11.5472C9.24419 12.4845 8.46279 13.2453 7.5 13.2453C6.53721 13.2453 5.75581 12.4845 5.75581 11.5472C5.75581 10.6098 6.53721 9.84906 7.5 9.84906C8.46279 9.84906 9.24419 10.6098 9.24419 11.5472ZM13.9535 14.0943C13.9535 15.6863 12.6235 16.9811 10.9884 16.9811H4.01163C2.37645 16.9811 1.04651 15.6863 1.04651 14.0943V9C1.04651 7.40802 2.37645 6.11321 4.01163 6.11321H10.9884C12.6235 6.11321 13.9535 7.40802 13.9535 9V14.0943ZM4.53488 3.90566C4.53488 2.31368 5.86483 1.01887 7.5 1.01887C8.28488 1.01887 9.03139 1.31943 9.59477 1.86028C10.1564 2.41387 10.4651 3.14066 10.4651 3.90566V5.09434H4.53488V3.90566ZM11.5116 5.12745V3.90566C11.5116 2.87151 11.0956 1.89085 10.3352 1.14028C9.5686 0.405 8.56221 0 7.5 0C5.2875 0 3.48837 1.7516 3.48837 3.90566V5.12745C1.52267 5.37792 0 7.01915 0 9V14.0943C0 16.2484 1.79913 18 4.01163 18H10.9884C13.2 18 15 16.2484 15 14.0943V9C15 7.01915 13.4773 5.37792 11.5116 5.12745Z" fill="#757575"/>
</svg>
